X:15
T:McGettrick's
R:reel
D:Snug in the Blanket,P.O'Brien,J.Gans,D.Sproule
S:Jimmy McGettrick, fiddle, Co. Sligo
Z:Paul Stewart Cranford (P.S.C.), <http://www.cranfordpub.com>
L:1/8
Q:333
M:C|
K:G
B2 AB G3 B|A2 FD ADFD|BGAB GEED|GEBE GEEA|
BGAB G2 BG|A2 FD ADFD|EGFA G3 d|egfa gedA:|
|:Bdgd Bdgd|BGAG FDDA|Bdgd Bdge|fgaf geeA|
Bdgd Bdgd|BGAG FDDF|EGFA G3 d|egfa gedA:|
